X:1
T:Title
%%score { ( 1 3 5 ) | ( 2 4 ) }
L:1/8
Q:1/4=100
M:4/4
K:Db
V:1 treble nm="Grand Piano"
V:3 treble 
V:5 treble 
V:2 bass 
V:4 bass 
V:1
 FFF[EG] [FA][Fd][Ac][GB] | [FA]>[GB] [FA][EG] [DF]4 | [CE][DF][EG][FA] [Ac][GB][FA][EG] | %3
w: Charles~H.~Gabriel * * * * * * *|||
 F>_F =F[EG] [FA]4 | FFF[EG] [FA][Fd][Ac][GB] | [FA]>[GB] [FA][EG] F4 | EE[EA]B c[Ec][Ee][Fd] | %7
w: ||||
 c>d cB z2 G2 | FFFF z dce | d-[Fd-][Fd-][Fd] A2- [FA]2 | B6 z2 | A4 F4 | %12
w: |||||
 [CE][DF][EG][FA] [Ac][GB][FA][EG] | [DF]2 [FA]2 [Fd]2 [FA]2 | [GB][Bd][Ac][GB] [FA][Fd]DE | %15
w: |||
 F2 [CE]2 D4 |] %16
w: |
V:2
 [D,A,D][D,A,D][D,A,D][D,A,] [D,D][D,D][D,D][D,D] | [D,D]>[D,D] [D,D][D,A,] [D,A,]4 | %2
 [A,,A,][A,,A,][A,,A,][A,,A,] [A,,A,][A,,A,][A,,A,][A,,A,] | %3
 [D,A,D]>[D,=G,D] [D,A,D][D,A,] [D,D]4 | [D,A,D][D,A,D][D,A,D][D,D] [D,D][D,D][D,D][D,D] | %5
 [D,D]>[D,D] [D,D][D,A,] [D,A,D]4 | [E,A,C][D,B,][C,A,][E,=G,E] [A,E][A,,A,][C,A,][D,A,] | %7
 z4 C2 z2 | z4 .D2 z2 | [D,A,][D,A,][D,A,][D,A,] [D,D]2 [D,D]2 | %10
 [G,DG][G,D][G,D][G,D] z[K:treble] B[K:bass] [G,D]2 | [D,D][D,D][D,D][D,D] [D,A,D]2 [D,A,]2 | %12
 [A,,A,][A,,A,][A,,A,][A,,A,] [A,,A,][A,,A,][A,,A,][A,,A,] | [D,A,]2 [D,D]2 [D,A,]2 [D,D]2 | %14
 [G,D][G,D][G,D][G,D] [D,D][D,A,][F,A,][G,B,D] | [A,D]2 [A,,G,]2 [D,F,]4 |] %16
V:3
 x8 | x8 | x8 | x8 | x8 | x8 | x8 | z4 A4 | A6 z2 | .F2 z2 F2 z2 | z GGG Gd[Ac][GB] | FFFF z2 D2 | %12
 x8 | x8 | x8 | x8 |] %16
V:4
 x8 | x8 | x8 | x8 | x8 | x8 | x8 | [E,A,E]>[E,B,E] [E,A,E][E,=G,D] A,2- [A,C]2 | %8
 [D,D][D,D][D,D][D,D] D,-[D,A,] [A,,A,]2 | x8 | z4 [G,D]2[K:treble][K:bass] z2 | x8 | x8 | x8 | %14
 x8 | x8 |] %16
V:5
 x8 | x8 | x8 | x8 | x8 | x8 | x8 | x8 | z4 F2 G2 | x8 | x8 | x8 | x8 | x8 | x8 | x8 |] %16

